X:1
T: The Weavers of Newly
C:
R:Strathspey
Q: 128
K:G
M:4/4
L:1/16
|:G4 G4 A3F D3d|B4 BB3 c6 e2|dB3 g3B A3G EA3|AD3 D3E G6 D2|
G4 G4 A3F D3d|B4 BB3 c6 e2|dB3 g3B A3G EA3|AD3 D3E G6 B2|
dg3 g3a bagf e3a|g3d eg3 d3e B3d|c3A B3G A3G EA3|AD3 D3E G4 G2B2|
dg3 g3a bagf e3a|g3d eg3 d3e B3d|c3A B3G A3G EA3|AD3 D3E G8:|
